src/components/icon/assets/more-info.svg

<?xml version="1.0" encoding="UTF-8"?>
<svg width="24px" height="24px" viewBox="0 0 24 24" version="1.1" xmlns="http://www.w3.org/2000/svg" xmlns:xlink="http://www.w3.org/1999/xlink">
    <!-- Generator: Sketch 60 (88103) - https://sketch.com -->
    <title>More Info</title>
    <desc>Created with Sketch.</desc>
    <g id="More-Info" stroke="none" stroke-width="1" fill="none" fill-rule="evenodd">
        <path d="M13,9 L11,9 L11,7 L13,7 L13,9 Z M13,17 L11,17 L11,11 L13,11 L13,17 Z M12,4 C7.581722,4 4,7.581722 4,12 C4,14.1217319 4.84285472,16.1565632 6.34314575,17.6568542 C7.84343678,19.1571453 9.87826808,20 12,20 C14.1217319,20 16.1565632,19.1571453 17.6568542,17.6568542 C19.1571453,16.1565632 20,14.1217319 20,12 C20,9.87826808 19.1571453,7.84343678 17.6568542,6.34314575 C16.1565632,4.84285472 14.1217319,4 12,4 Z" id="Shape" fill="#000000"></path>
    </g>
</svg>

<svg xmlns="http://www.w3.org/2000/svg" viewBox="0 0 24 24"><path d="M13 9h-2V7h2v2zm0 8h-2v-6h2v6zM12 4a8 8 0 100 16 8 8 0 000-16z" fill-rule="evenodd"/></svg>
